public/assets/bg/og.svg

<svg width="230" height="173" fill="none" xmlns="http://www.w3.org/2000/svg"><path fill="#F1F5F9" d="M0 0h230v173H0z"/><circle cx="114.5" cy="86.5" r="37.5" fill="#F7FAFC"/><path fill-rule="evenodd" clip-rule="evenodd" d="M127.25 70.25h-24.5a3.51 3.51 0 00-3.5 3.5v24.5a3.51 3.51 0 003.5 3.5h24.5a3.51 3.51 0 003.5-3.5v-24.5a3.51 3.51 0 00-3.5-3.5zm0 3.5v24.5h-24.5v-24.5h24.5zm-13.755 18.778l5.25-6.773 6.755 8.995h-21l5.25-6.755 3.745 4.532z" fill="#94A3B8"/></svg>

<svg width="230" height="173" viewBox="0 0 230 173" fill="none" xmlns="http://www.w3.org/2000/svg">
<rect width="230" height="173" fill="#F1F5F9"/>
<circle cx="114.5" cy="86.5" r="37.5" fill="#F7FAFC"/>
<path fill-rule="evenodd" clip-rule="evenodd" d="M127.25 70.25H102.75C100.825 70.25 99.25 71.825 99.25 73.75V98.25C99.25 100.175 100.825 101.75 102.75 101.75H127.25C129.175 101.75 130.75 100.175 130.75 98.25V73.75C130.75 71.825 129.175 70.25 127.25 70.25ZM127.25 73.75V98.25H102.75V73.75H127.25ZM113.495 92.5275L118.745 85.755L125.5 94.75H104.5L109.75 87.995L113.495 92.5275Z" fill="#94A3B8"/>
</svg>
